X: 24
T: The Anspacher
R: waltz
M: 3/8
L: 1/16
Z: 2010 John Chambers <jc:trillian.mit.edu> (tune)
Z: 2015 John Chambers <jc:trillian.mit.edu> (dance)
S: http://archive.org/details/imslp-american-country-dances-1785-various
S: http://imslp.org/wiki/24_American_Country_Dances_(Cantelo,_Hezekiah)
B: Cantelo ed. "Twenty Four American Country Dances", London 1785 (Longman & Broderip)
K: G
% - - - - - - - - - - - - - - - - - - - - - - - - - - - - -
V: 1
|: G4g2 | f2afd2 | D4c2 | B2dBG2 | G4g2 | f2afd2 | c4AF | G6 :|
|: B4d2 | d4c2 | B2B2 ((3ABc) | B4G2 | B4 d2 | d4c2 | B2(cBAB) | G4z2 :|
% - - - - - - - - - - - - - - - - - - - - - - - - - - - - -
V: 2 clef=bass middle=d
|: g2b2g2 | d2d2d2 | d2f2d2 | g2g2g2 | g2b2g2 | d4B2 | c2A2d2 | G6 :|
|: g2b2g2 | d2d2d2 | d2d2d2 | g2d2B2 | G2B2G2 | d2d2d2 | d4D2 | G4z2 :|
% - - - - - - - - - - Dance description - - - - - - - - - -
%%begintext align
%% Right hands across round to the right .|. left Ditto to the Left :|:
%% cross over one Couple and foot it .|. Right and left at the top :|:
%%endtext

%%sep 2 1 500

